!!!!SEGMENT: pl-wtm--r-692-m--004_moniuszko-stanislaw--sonety-krymskie-hymn-czatyrdah.krn
!!!cenid: 18xx:2930
!!!COM: Moniuszko, Stanisław
!!!COM-rismID: pe30008351
!!!CDT: 1819/05/05-1872/06/04
!!!CNT: Polish
!!!GTL: Sonety krymskie
!!!OTL: Hymn Czatyrdah
!!!PDT:
!!!AGN: Secular; Sonnet
!!!SMS-siglum: PL-Wtm
!!!SMS-shelfmark: R 692/M
!!!SMS-shelfwork: 004 G
!!!SMS-variant:
!!!SMS-altvar:
!!!NIFC-rismSourceID: 1001095953
!!!NIFC-rismChildID: 1001095953
!!!NIFC-islandoraID:
!!!URL-pdf-islandora:
!!!URL-scan:
!!!ONB-nifc: UWAGA: zbiór zawiera: 1. Burza, 2. Ruiny, 3. Noc, 4. Hymn Czatyrdah, 5. Ostatni sonet
!!!OMD: Molto maestoso.
!!!AIN: 1 alto 1 empty 2 piano 1 soprn 1 tenor
!!!key:
**kern	**kern	**dynam	**kern	**text	**dynam	**kern	**text	**dynam	**kern	**text	**text	**dynam	**kern	**text	**text	**text	**dynam
*group2	*group2	*	*group1	*	*	*group1	*	*	*group1	*	*	*	*group1	*	*	*	*
*part6	*part5	*part5	*part4	*part4	*part4	*part3	*part3	*part3	*part2	*part2	*part2	*part2	*part1	*part1	*part1	*part1	*part1
*staff6	*staff5	*	*staff4	*staff4	*	*staff3	*staff3	*	*staff2	*staff2	*staff2	*	*staff1	*staff1	*staff1	*staff1	*
*Ipiano	*Ipiano	*	*Iempty	*	*	*Itenor	*	*	*Ialto	*	*	*	*Isoprn	*	*	*	*
*I"[Piano]	*I"[Piano]	*	*I"[Basso]	*	*	*I"[Tenore]	*	*	*I"[Alto]	*	*	*	*I"[Soprano]	*	*	*	*
*clefF4	*clefG2	*	*clefF4	*	*	*clefGv2	*	*	*clefG2	*	*	*	*clefG2	*	*	*	*
*k[b-e-a-d-g-]	*k[b-e-a-d-g-]	*	*k[b-e-a-d-g-]	*	*	*k[b-e-a-d-g-]	*	*	*k[b-e-a-d-g-]	*	*	*	*k[b-e-a-d-g-]	*	*	*	*
*D-:	*D-:	*	*D-:	*	*	*D-:	*	*	*D-:	*	*	*	*D-:	*	*	*	*
*M2/1	*M2/1	*	*M2/1	*	*	*M2/1	*	*	*M2/1	*	*	*	*M2/1	*	*	*	*
*all\right	*all\right	*	*all\right	*	*	*all\right	*	*	*all\right	*	*	*	*all\right	*	*	*	*
!LO:TX:t=P:problem=all\right&colon; global	!LO:TX:t=P:problem=all\right&colon; global	!	!LO:TX:t=P:problem=all\right&colon; global	!	!	!LO:TX:t=P:problem=all\right&colon; global	!	!	!LO:TX:t=P:problem=all\right&colon; global	!	!	!	!LO:TX:t=P:problem=all\right&colon; global	!	!	!	!
4AA-/	4r	f	4r	.	.	4r	.	.	4r	.	.	.	4r	.	.	.	.
=1	=1	=1	=1	=1	=1	=1	=1	=1	=1	=1	=1	=1	=1	=1	=1	=1	=1
*	*^	*	*	*	*	*	*	*	*	*	*	*	*	*	*	*	*
2D-^</	1r	2ryy	.	0r	.	.	0r	.	.	0r	.	.	.	0r	.	.	.	.
2FF^</	.	4r	.	.	.	.	.	.	.	.	.	.	.	.	.	.	.	.
.	.	4d-\	.	.	.	.	.	.	.	.	.	.	.	.	.	.	.	.
*	*	*2\right	*	*	*	*	*	*	*	*	*	*	*	*	*	*	*	*
2.EE-/	2ryy	2g-~>^>\	.	.	.	.	.	.	.	.	.	.	.	.	.	.	.	.
.	4b-/	2B-^>~>\	.	.	.	.	.	.	.	.	.	.	.	.	.	.	.	.
4DD-/	8cc/L	.	.	.	.	.	.	.	.	.	.	.	.	.	.	.	.	.
.	8dd-/J	.	.	.	.	.	.	.	.	.	.	.	.	.	.	.	.	.
=2	=2	=2	=2	=2	=2	=2	=2	=2	=2	=2	=2	=2	=2	=2	=2	=2	=2	=2
*^	*	*	*	*	*	*	*	*	*	*	*	*	*	*	*	*	*	*
*	*^	*	*	*	*	*	*	*	*	*	*	*	*	*	*	*	*	*	*
*	*2\right	*	*	*	*	*	*	*	*	*	*	*	*	*	*	*	*	*	*	*
2rA	2.CC\	2.CC/	2ee-^</	1re	.	0r	.	.	0r	.	.	0r	.	.	.	0r	.	.	.	.
2E-/	.	.	4g-^</	.	.	.	.	.	.	.	.	.	.	.	.	.	.	.	.	.
.	4BB-\	4ryy	8a-/L	.	.	.	.	.	.	.	.	.	.	.	.	.	.	.	.	.
.	.	.	8b-/J	.	.	.	.	.	.	.	.	.	.	.	.	.	.	.	.	.
!	!	!	!	!	!LO:HP:a:color=blue	!	!	!	!	!	!	!	!	!	!	!	!	!	!	!
2A-^>/	1AA-	1ryy	4.cc/	2ryy	>	.	.	.	.	.	.	.	.	.	.	.	.	.	.	.
.	.	.	8b-/	.	.	.	.	.	.	.	.	.	.	.	.	.	.	.	.	.
2C^>/	.	.	4a-/	2e-\	.	.	.	.	.	.	.	.	.	.	.	.	.	.	.	.
.	.	.	4g-/	.	.	.	.	.	.	.	.	.	.	.	.	.	.	.	.	.
*	*v	*v	*	*	*	*	*	*	*	*	*	*	*	*	*	*	*	*	*	*
=3	=3	=3	=3	=3	=3	=3	=3	=3	=3	=3	=3	=3	=3	=3	=3	=3	=3	=3	=3
2r	1AAn	2.f/	2.f^<\	.	1r	.	.	1r	.	.	1r	.	.	.	1r	.	.	.	.
[>2F/^>	.	.	.	.	.	.	.	.	.	.	.	.	.	.	.	.	.	.	.
.	.	4e-/	4ryy	]	.	.	.	.	.	.	.	.	.	.	.	.	.	.	.
*	*	*	*	*	*2\right	*	*	*2\right	*	*	*2\right	*	*	*	*	*	*	*	*
!	!	!	!	!	!	!	!	!LO:TX:t=P:pp[ianissimo]=pp.:problem	!	!	!	!	!	!	!	!	!	!	!
!	!	!	!	!LO:DY:rj:color=blue	!	!	!LO:DY:a:rj	!LO:TX:a:t=col Sopr:note:przekreślone na czerwono	!	!LO:DY:a:rj	!LO:TX:a:t=col Sopr:note:przekreślone na czerwono	!	!	!	!LO:TX:t=P:pp[ianissimo]=pp.:problem	!	!	!	!LO:DY:a:rj
2F/]	4.BB-\	2.B-/ 2.d-	1ryy	p	2.D-\	.	pp	2.d-\yy	Drżąc	pp y	2.d-\@	.	.	.	2.d-/	Drżąc	.	.	pp
.	8AA\	.	.	.	.	.	.	.	.	.	.	.	.	.	.	.	.	.	.
2G-/	4GG-\	.	.	.	.	.	.	.	.	.	.	.	.	.	.	.	.	.	.
.	4EE-/	4c/ 4e-	.	.	4E-\	.	.	4e-\yy	mu-	.	4e-\@	.	.	.	4e-/	mu-	.	.	.
=4	=4	=4	=4	=4	=4	=4	=4	=4	=4	=4	=4	=4	=4	=4	=4	=4	=4	=4	=4
4A-/	1AA-	(>4f/	2d-\	.	(>4F\	.	.	(<4f\yy	-śli-	.	4f/@	.	.	.	(<4f/	-śli-	.	.	.
8G-/L	.	4g-/	.	.	4G-\)	.	.	4g-\)yy	.	.	4g-/@	.	.	.	4g-/)	.	.	.	.
8F/J	.	.	.	.	.	.	.	.	.	.	.	.	.	.	.	.	.	.	.
8E-/L	.	4a-/	4c\	.	4A-\	.	.	4a-\yy	-min	.	4a-/@	.	.	.	4a-/	-min	.	.	.
8F/J	.	.	.	.	.	.	.	.	.	.	.	.	.	.	.	.	.	.	.
[>4G-/	.	8b-/L	4e-\	.	8B-\L	.	.	8b-\Lyy	ca-	.	8b-\L@	.	.	.	8b-\L	ca-	.	.	.
.	.	8cc/J	.	.	8c\J	.	.	8cc\Jyy	.	.	8cc\J@	.	.	.	8cc\J	.	.	.	.
*	*2\right	*	*	*	*	*	*	*	*	*	*	*	*	*	*	*	*	*	*
2G-/]	2BB--\	2.dd-/	4d-\	.	2.d-\	.	.	2.dd-\yy	-łu-	.	2.dd-\	.	.	.	2.dd-\	-łu-	.	.	.
.	.	.	4e-\	.	.	.	.	.	.	.	.	.	.	.	.	.	.	.	.
2D-/ 2A-	2AA-\	.	4f\	.	.	.	.	.	.	.	.	.	.	.	.	.	.	.	.
.	.	4cc-X/	8g-\L	.	8r	.	.	4cc-X\yy	-je	.	4a-/	.	.	.	4cc-X\	-je	.	.	.
!	!	!	!	!	!LO:N:vis=4	!	!	!	!	!	!	!	!	!	!	!	!	!	!
.	.	.	8a-\J)	.	8c	.	.	.	.	.	.	.	.	.	.	.	.	.	.
*	*	*v	*v	*	*	*	*	*	*	*	*	*	*	*	*	*	*	*	*
!!LO:LB:g=original
=5	=5	=5	=5	=5	=5	=5	=5	=5	=5	=5	=5	=5	=5	=5	=5	=5	=5	=5
!	!	!	!	!LO:TX:t=P:4\left:problem	!	!	!	!	!	!	!	!	!	!	!	!	!	!
1D-	(>2GG-\	(4a-/ 4cc-X	.	4A-\	.	.	4cc-X\yy	.	.	4a-/	.	.	.	4cc-X\	.	.	.	.
!	!	!	!	!LO:TX:t=P:problem=4\right&colon; global	!	!	!	!	!	!	!	!	!	!	!	!	!	!
.	.	4g-/ 4b--	.	4G-\	.	.	4b--\yy	.	.	4g-/	.	.	.	4b--\	.	.	.	.
.	4AA-\	4f/ 4a-	.	4F\	.	.	4a-\yy	.	.	4f/	.	.	.	4a-/	.	.	.	.
.	4BB--\)	4e-/ 4g-	.	4E-\	.	.	4g-\yy	.	.	4e-/	.	.	.	4g-/	.	.	.	.
*	*	*	*	*2\left	*	*	*	*	*	*	*	*	*	*	*	*	*	*
(<4AA-/	1DD-	2f/ 2a-	.	2F\	.	.	2a-\yy	.	.	2f/	.	.	.	2a-/	.	.	.	.
8BB-X/L	.	.	.	.	.	.	.	.	.	.	.	.	.	.	.	.	.	.
8C/	.	.	.	.	.	.	.	.	.	.	.	.	.	.	.	.	.	.
8D-/	.	4d-/) 4f	.	4D-\	.	.	4f\yy	.	.	4d-/	.	.	.	4f/	.	.	.	.
8C/	.	.	.	.	.	.	.	.	.	.	.	.	.	.	.	.	.	.
!	!	!	!	!	!	!	!	!	!	!	!	!	!	!LO:TX:t=P:problem=wykreślone dwa takty (6-7)	!	!	!	!
!	!	!	!	!	!	!	!	!	!	!	!	!	!	!LO:TX:a:t=vi =pag 6.:color=blue	!	!	!	!
8D-/	.	4r	.	4r	.	.	4ryy	.	.	4r	.	.	.	4r	.	.	.	.
8F/J)	.	.	.	.	.	.	.	.	.	.	.	.	.	.	.	.	.	.
=6	=6	=6	=6	=6	=6	=6	=6	=6	=6	=6	=6	=6	=6	=6	=6	=6	=6	=6
*	*	*^	*	*	*	*	*	*	*	*	*	*	*	*	*	*	*	*
!	!	!	!	!	!	!	!	!	!	!	!	!	!	!	!LO:TX:a:t==de	!	!	!	!
1ryy	1FF	2a-^>/	1A-	.	0r	.	.	1r	.	.	2a-^</	masz-	.	.	0r	.	.	.	.
.	.	(>4.d-^>/	.	.	.	.	.	.	.	.	4.d-/	-cie	.	.	.	.	.	.	.
.	.	8c/	.	.	.	.	.	.	.	.	8c/	krym-	.	.	.	.	.	.	.
2ryy	1GG-	4B-/	N(>2A-\	.	.	.	.	2A-^</	masz-	.	(<4B-/	-skie-	.	.	.	.	.	.	.
.	.	4d-/	.	.	.	.	.	.	.	.	4d-/	.	.	.	.	.	.	.	.
4G-/	.	4g-/	2ryy	.	.	.	.	4G-/	-cie	.	4g-/)	.	.	.	.	.	.	.	.
4F/	.	4a-/)	.	.	.	.	.	4F/	krym-	.	4a-/	-go	.	.	.	.	.	.	.
=7	=7	=7	=7	=7	=7	=7	=7	=7	=7	=7	=7	=7	=7	=7	=7	=7	=7	=7	=7
*	*	*	*	*	*2\right	*	*	*	*	*	*	*	*	*	*	*	*	*	*
!LO:TX:t=P:problem=łuk frazowy od 4E- do 2-B	!	!	!	!	!LO:ART:color=blue	!	!	!	!	!	!	!	!	!	!	!	!	!	!
4E-/N)	1GG-	&(>4.b-/	2ryy	.	2.G-^>\	Cza-	.	(>4E-/	-skie-	.	2b-/	stat-	.	.	4.b-/	wiel-	.	.	.
4G-/	.	.	.	.	.	.	.	4G-/	.	.	.	.	.	.	.	.	.	.	.
.	.	8e-/	.	.	.	.	.	.	.	.	.	.	.	.	8e-/	-ki	.	.	.
2ryy	.	4e-/	2B-\	.	.	.	.	4B-/)	.	.	4e-/	-ku	.	.	4e-/	cza-	.	.	.
.	.	4d-/	.	.	4G-\	-tyr-	.	4d-\	-go	.	4r	.	.	.	4d-/	-tyr-	.	.	.
!	!	!	!	!	!LO:ART:color=blue	!	!	!	!	!	!	!	!	!	!	!	!	!	!
[>2.E-/	[<2GG-\	4c/	2B-\	.	[>2G-^>\	-da-	.	2A-/	stat-	.	1r	.	.	.	(<4c/	-da	.	.	.
.	.	4e-/	.	.	.	.	.	.	.	.	.	.	.	.	4e-/	.	.	.	.
.	8GG-\L]	4a-/	2A-\	.	8G-\L]	.	.	4A-/	-ku	.	.	.	.	.	4a-/)	.	.	.	.
.	8FF\	.	.	.	8F\J	.	.	.	.	.	.	.	.	.	.	.	.	.	.
!	!	!	!	!	!	!	!	!	!	!	!	!	!	!	!LO:TX:a:t==tro:color=blue:rj	!	!	!	!
!	!	!	!	!	!	!	!	!	!	!	!	!	!	!	!LO:TX:a:t=re=:color=red	!	!	!	!
8E-/L]	8EE-\	4cc/&)	.	.	8E-\L	-hu!	.	4r	.	.	.	.	.	.	4cc/	.	.	.	.
8D-/J	8DD-\J	.	.	.	8D-\J	.	.	.	.	.	.	.	.	.	.	.	.	.	.
=8	=8	=8	=8	=8	=8	=8	=8	=8	=8	=8	=8	=8	=8	=8	=8	=8	=8	=8	=8
!	!	!	!	!	!	!	!LO:DY:a:rj	!	!	!LO:DY:a:rj	!	!	!	!LO:DY:a:rj	!	!	!	!	!LO:DY:a:rj
1ryy	4CC/ 4C	4e-/ 4g- 4ee-	1ryy	f	4C/	.	f	4A-/	.	f	4g-/	.	.	f	4ee-\	o	.	.	f
.	8.C\L 8.A-	8.g-/L 8.ee-	.	.	8.C/	.	.	8.A-/	.	.	8.g-/	.	.	.	8.ee-\	mi-	.	.	.
.	16C\Jk 16A-	16g-/Jk 16ee-	.	.	16C/	.	.	16A-/	.	.	16g-/	.	.	.	16ee-\	-na-	.	.	.
.	4C\ 4A-	4g-/ 4ee-	.	.	4C/	.	.	4A-/	.	.	4g-/	.	.	.	4ee-\	-re-	.	.	.
.	4D-\ 4A-	4g-/ 4dd-	.	.	4D-/	.	.	4A-/	.	.	4g-/	.	.	.	4dd-\	-cie	.	.	.
*	*	*	*	*	*	*	*	*	*	*	*	*	*	*	*2\right	*	*	*	*
!	!	!	!	!	!	!	!LO:HP:a	!	!	!LO:HP:b	!	!	!	!LO:HP:a	!	!	!	!	!LO:HP:a
1A-	2.E-\	2dd-/	2.g-\	>	2E-\	.	>	2A-/	.	>	2g-/	.	.	>	2dd-\	świa-	.	.	>
.	.	2cc/	.	.	8E-\	.	]	8A-/	.	]	8e-/	.	.	]	8cc\	-ta	.	.	]
.	.	.	.	.	8r	.	.	8r	.	.	8r	.	.	.	8r	.	.	.	.
!	!	!	!	!	!	!	!LO:DY:a:rj	!	!	!LO:DY:a	!	!	!	!	!	!	!	!	!
.	4G-\	.	4e-\	]	4G-\	.	p	4A-/	.	p	4e-/	.	.	.	4cc\	o	.	.	.
*v	*v	*	*	*	*	*	*	*	*	*	*	*	*	*	*	*	*	*	*
*	*v	*v	*	*	*	*	*	*	*	*	*	*	*	*	*	*	*	*
=9	=9	=9	=9	=9	=9	=9	=9	=9	=9	=9	=9	=9	=9	=9	=9	=9	=9
!	!	!LO:DY:rj	!	!	!	!	!	!	!	!	!	!LO:DY:a:rj	!	!	!	!	!LO:DY:a:rj
2F\ 2A-	2d-/ 2dd-	p	2F\	.	.	2A-/	.	.	2d-/	.	.	p	2dd-\	gór	.	.	p
4D-\ 4A-	4f/ 4a-	.	4D-\	.	.	4A-/	.	.	4f/	.	.	.	4a-/	pa-	.	.	.
4F\ 4A-	4d-/ 4f	.	4F\	.	.	4A-/	.	.	4d-/	.	.	.	4f/	-dy-	.	.	.
(>2E-\ 2G-	(>2d-/ 2b-	.	2E-\	.	.	2G-/	.	.	2d-/	.	.	.	2b-/	-sza-	.	.	.
2AA-/) 2E-	2c/) 2a-	.	4AA-/	.	.	4E-/	.	.	4c/	.	.	.	4a-/	-chu	.	.	.
.	.	.	4r	.	.	4r	.	.	4r	.	.	.	4r	.	.	.	.
!!LO:PB:g=original
=10	=10	=10	=10	=10	=10	=10	=10	=10	=10	=10	=10	=10	=10	=10	=10	=10	=10
*	*	*	*^	*	*	*^	*	*	*	*	*	*	*	*	*	*	*
!	!	!LO:DY:color=blue	!	!	!	!	!	!	!	!	!	!	!	!LO:DY:a:color=blue	!LO:TX:a:t=a:color=red	!	!	!	!LO:DY:a:color=blue
2DD-/ 2AA-	2A-/ 2d- 2f 2a-	mf	2r	2D-\	.	.	2d-/	2A-\	.	.	2f/	nad	.	mf	2a-/	ty	.	.	mf
4.AAA-/ 4.AA-	4.c/ 4.e- 4.g- 4.a-	.	4.A-/	4.AA-/	.	.	4.e-/	4.c\	.	.	4.g-/	po-	.	.	4.a-/	nad	.	.	.
8AAA-/ 8AA-	8c/ 8e- 8g- 8a-	.	8A-/	8AA-/	.	.	8ryy	8c\ 8e-	.	.	8g-/	-ziom	.	.	8a-/	po-	.	.	.
1DD- 1AA-	(>4d-/ 4f 4a-	.	4D-/	4D-\	.	.	1ryy	4B-\ 4d-	.	.	4g-/	skał...	.	.	4a-/	-zio-	.	.	.
.	4dd-\	.	4r	4ryy	.	.	.	2ryy	.	.	4r	.	.	.	4dd-\	-mu	.	.	.
.	4ff\	.	2r	2ryy	.	.	.	.	.	.	2r	.	.	.	4ff\	ska-	.	.	.
*	*	*	*	*	*	*	*	*	*	*	*	*	*	*	*	*color:blue	*	*	*
.	4ee-\	.	.	.	.	.	.	4ryy	.	.	.	.	.	.	4ee-\	-ły uc	.	.	.
*	*	*	*	*	*	*	*	*	*	*	*	*	*	*	*	*color:auto	*	*	*
*	*	*	*v	*v	*	*	*	*	*	*	*	*	*	*	*	*	*	*	*
*	*	*	*	*	*	*v	*v	*	*	*	*	*	*	*	*	*	*	*
=11	=11	=11	=11	=11	=11	=11	=11	=11	=11	=11	=11	=11	=11	=11	=11	=11	=11
*^	*^	*	*	*	*	*	*	*	*	*	*	*	*	*	*	*	*
!	!	!	!	!	!	!	!	!	!	!	!	!	!	!	!	!	!	!	!LO:HP:a:color=blue
(<4F/	1r	4dd-\	1ryy	.	0r	.	.	0r	.	.	0r	.	.	.	(>4dd-\	[[uciek-	.	.	>
4A-/	.	4a-/	.	.	.	.	.	.	.	.	.	.	.	.	4a-/)	-łszy]]	.	.	.
4d-/	.	4f/	.	.	.	.	.	.	.	.	.	.	.	.	4f/	.	.	.	.
4B-/)	.	4g-/	.	.	.	.	.	.	.	.	.	.	.	.	4g-/	w ob-	.	.	.
1A-	(>4D-\	(>2b-/	2f\	.	.	.	.	.	.	.	.	.	.	.	2b-/	-ło-	.	.	.
.	4AA-\	.	.	.	.	.	.	.	.	.	.	.	.	.	.	.	.	.	.
.	4FF\	2a-/))	4d-\	.	.	.	.	.	.	.	.	.	.	.	4a-/	-ki	.	.	]
.	4AA-\)	.	4e-\	.	.	.	.	.	.	.	.	.	.	.	4rj	.	.	.	.
*v	*v	*	*	*	*	*	*	*	*	*	*	*	*	*	*	*	*	*	*
=12	=12	=12	=12	=12	=12	=12	=12	=12	=12	=12	=12	=12	=12	=12	=12	=12	=12	=12
*	*	*	*	*^	*	*	*	*	*	*	*	*	*	*	*	*	*	*
*	*	*	*	*	*	*	*	*	*	*color:blue	*	*	*color:blue	*	*	*	*	*	*
!	!	!LO:TX:t=P:pp[ianissimo]=pp.:problem	!LO:DY:color=blue	!	!	!	!LO:DY:a:rj:color=blue	!	!	!LO:DY:a:rj:color=blue	!	!	!	!LO:DY:a:rj:color=blue	!	!	!	!	!LO:DY:a:rj:color=blue
2DD-/ 2AA- 2D-	2f/ 2a-	1ryy	pp	2D-/	2D-\	.	pp	2A-/	w nie-	pp	2f/	[[sie-	.	pp	2a-/	sie-	.	.	pp
4.GGG-/ 4.GG-	4.d-/ 4.f-X 4.b-	.	.	4.GG-/ 4.D-	2ryy	.	.	4.G-/	-bios	.	4.f-X/	-dzisz	.	.	2b-\	-dzisz	.	.	.
8GG-/	8d-/ 8f- 8b-	.	.	8GG-/ 8D-	.	.	.	8G-/	bram...	.	8f-/	w bra-	.	.	.	.	.	.	.
1CC-X 1GG-	(>4cc-X/	1e-	.	2ryy	2C-\@	.	.	2G-/	.	.	2e-/@	-mie]]	.	.	(>4cc-X\	so-	.	.	.
.	4g-/	.	.	.	.	.	.	.	.	.	.	.	.	.	4a-/)	.	.	.	.
*	*	*	*	*2\left	*	*	*	*	*	*color:auto	*	*	*color:auto	*	*	*	*	*	*
.	4ee-/	.	.	2r@	2ryy	.	.	2r	.	.	2r@	.	.	.	4ee-\	-bie	.	.	.
.	4dd-/	.	.	.	.	.	.	.	.	.	.	.	.	.	4dd-\	pod	.	.	.
*	*	*	*	*2\right	*	*	*	*	*	*	*	*	*	*	*	*	*	*	*
*	*v	*v	*	*	*	*	*	*	*	*	*	*	*	*	*	*	*	*	*
*	*	*	*v	*v	*	*	*	*	*	*	*	*	*	*	*	*	*	*
=13	=13	=13	=13	=13	=13	=13	=13	=13	=13	=13	=13	=13	=13	=13	=13	=13	=13
(<4E-/	4cc-X\	.	1r	.	.	1r	.	.	1r	.	.	.	(>4cc-X\	bra-	.	.	.
4G-/	4g-/	.	.	.	.	.	.	.	.	.	.	.	4g-/)	.	.	.	.
4c-X/	4e-/	.	.	.	.	.	.	.	.	.	.	.	(<4e-/	-mą	.	.	.
4A-/	4f-X/)	.	.	.	.	.	.	.	.	.	.	.	4f-X/)	.	.	.	.
4G-/	2g-/	.	1r	.	.	1r	.	.	1r	.	.	.	2g-/	nie-	.	.	.
4E-/	.	.	.	.	.	.	.	.	.	.	.	.	.	.	.	.	.
4C-X/	2e-/ 2g-	.	.	.	.	.	.	.	.	.	.	.	2a-/	-bios,	.	.	.
4AA-/)	.	.	.	.	.	.	.	.	.	.	.	.	.	.	.	.	.
=14	=14	=14	=14	=14	=14	=14	=14	=14	=14	=14	=14	=14	=14	=14	=14	=14	=14
*^	*^	*	*	*	*	*	*	*	*	*	*	*	*	*	*	*	*
!	!	!	!	!	!	!	!LO:DY:a:rj:color=blue	!	!	!	!	!	!	!LO:DY:a:rj:color=blue	!	!	!	!	!LO:DY:a:rj:color=blue
2GG-/	1ryy	2B-/ 2d- 2b-	1ryy	.	2G-\	.	mf	2r	.	.	2e-/	.	.	mf	2b-/	[[sie-	jak	.	mf
!	!	!	!	!	!	!	!	!	!	!LO:DY:a:color=blue	!	!	!	!	!	!	!	!	!
4.E-\ 4.G-	.	4.B-/ 4.d- 4.e-	.	.	2G-\	.	.	4.B-\	jak	mf	2e-/	.	.	.	2e-/	-dzisz	wy-	.	.
8E-\ 8G-	.	8d-/ 8e-	.	.	.	.	.	8B-\	.	.	.	.	.	.	.	.	.	.	.
!LO:TX:t=P:problem=łuk frazowy między systemami; "N" nie działa poprawnie	!	!	!	!	!	!	!	!	!	!LO:HP:b:color=blue	!	!	!	!	!LO:ART:color=blue	!	!	!	!
4B-/	(>1G-	2.ee-/	4e-/	.	2.G-\	.	.	(>4B-\	.	<	2.e-/	.	.	.	2.ee-^>\	so-	-so-	.	.
4ryy	.	.	4e-\	.	.	.	.	4e-\	.	.	.	.	.	.	.	.	.	.	.
2ryy	.	.	4g-\	.	.	.	.	4g-\)	.	[	.	.	.	.	.	.	.	.	.
.	.	4dd-/	4f\)	.	4r	.	.	4f\	.	.	4B-/	.	.	.	4dd-\	-bie]]	-ki	.	.
*v	*v	*	*	*	*	*	*	*	*	*	*	*	*	*	*	*	*	*	*
*	*v	*v	*	*	*	*	*	*	*	*	*	*	*	*	*	*	*	*
!!LO:LB:g=original
=15	=15	=15	=15	=15	=15	=15	=15	=15	=15	=15	=15	=15	=15	=15	=15	=15	=15
2G-\ 2A-	(<4f/ 4dd-	.	4G-\	.	.	4A-/	.	.	4e-/	.	.	.	4dd-\	[[jak	Gab-	.	.
.	4e-/) 4cc	.	4G-\	.	.	4A-/	.	.	4e-/	.	.	.	4cc\	wy-	-ryel	.	.
4G-\ 4A-	4.e-/ 4.cc	.	4.G-\	.	.	4.A-/	.	.	4.e-/	.	.	.	4.b-\	-so-	pil-	.	.
4G-\ 4B-	.	.	.	.	.	.	.	.	.	.	.	.	.	.	.	.	.
.	8d-/ 8b-	.	8G-\	.	.	8B-/	.	.	8e-/	.	.	.	8b-\	-ki	-nu-	.	.
!	!	!	!	!	!LO:HP:a:color=blue	!	!	!LO:HP:a:color=blue	!	!	!	!LO:HP:a:color=blue	!	!	!	!	!LO:HP:a:color=blue
4G-\	(<2d-/ (>2b-	.	2G-\	.	>	2B-\	.	>	2e-/	.	.	>	2b-\	Ga-	-ją-	.	>
8F\L	.	.	.	.	.	.	.	.	.	.	.	.	.	.	.	.	.
8G-\J	.	.	.	.	.	.	.	.	.	.	.	.	.	.	.	.	.
4A-\	2c/) 2a-)	.	2G-\	.	]	2c\	.	]	2e-/	.	.	]	2a-/	-bryel	-cy	.	]
4G-\	.	.	.	.	.	.	.	.	.	.	.	.	.	.	.	.	.
=16	=16	=16	=16	=16	=16	=16	=16	=16	=16	=16	=16	=16	=16	=16	=16	=16	=16
!	!	!	!	!	!	!	!	!	!	!	!	!	!LO:TX:t=P:pp[ianissimo]=pp.:problem	!	!	!	!
!	!	!	!	!	!LO:DY:a:rj:color=blue	!	!	!LO:DY:a:rj:color=blue	!	!	!	!LO:DY:a:color=blue:rj	!LO:TX:a:t=E:color=red:rj	!	!	!	!LO:DY:a
2F\^>	2d-/ 2a- 2dd-	.	2F\	.	pp	2A-/	.	pp	2d-/	.	.	pp	2dd-\	pil-	e-	.	pp
2AA-^</	4.d-/ 4.f	.	2AA-/	.	.	2d-\	.	.	2d-/	.	.	.	2f/	-nu-	-deń-	.	.
.	8d-/ 8f	.	.	.	.	.	.	.	.	.	.	.	.	.	.	.	.
2D-\	2f/ 2a-	.	2D-\	.	.	2f\	.	.	2d-/	.	.	.	2a-/	-ją-	-skie-	.	.
8FF/L	2A-/ 2d-	.	2FF/ 2F	.	.	2A-/	.	.	2d-/	.	.	.	2d-/	-cy	-go	.	.
8AA-/	.	.	.	.	.	.	.	.	.	.	.	.	.	.	.	.	.
8D-/	.	.	.	.	.	.	.	.	.	.	.	.	.	.	.	.	.
8F/J	.	.	.	.	.	.	.	.	.	.	.	.	.	.	.	.	.
=17	=17	=17	=17	=17	=17	=17	=17	=17	=17	=17	=17	=17	=17	=17	=17	=17	=17
*^	*^	*	*^	*	*	*	*	*	*	*	*	*	*	*	*	*	*
4.A-/	2.AA-\	(>4f/	2.d-\	.	2.AA-\ 2.A-	2.ryy	[[e	.	4.A-/	gma-	.	4.d-/	.	.	.	(<4f/	e-	gma-	.	.
.	.	4g-/	.	.	.	.	.	.	.	.	.	.	.	.	.	4g-/	-deń-	.	.	.
8B-/	.	.	.	.	.	.	.	.	8B-/	-chu	.	8d-/	.	.	.	.	.	.	.	.
4A-/	.	4f/	.	.	.	.	.	.	4A-/	czar-	.	4d-/	.	.	.	4f/)	-skie-	.	.	.
4GG-/ 4G-	4ryy	4e-/	4c\	.	4G-/	4G-\	deń-	.	4A-/	-ny	.	4d-/	.	.	.	4e-/	-go	-chu	.	.
4.FF/ 4.F	1ryy	1a-	2.d-\	.	4.G-/	4.G-\	-skie-	.	2.A-/	las	.	2.d-/	.	.	.	2.a-/	gma-	czar-	.	.
8GG-/ 8G-	.	.	.	.	8G-/	8G-\	-go	.	.	.	.	.	.	.	.	.	.	.	.	.
4FF/ 4F	.	.	.	.	4F/	4F\	zwan]]	.	.	.	.	.	.	.	.	.	.	.	.	.
4EE-/ 4E-	.	.	4e-\)	.	4E-/	4E-\	.	.	4A-/	twych	.	4f/	.	.	.	4a-/	-chu,	-ny	.	.
*v	*v	*	*	*	*v	*v	*	*	*	*	*	*	*	*	*	*	*	*	*	*
*	*v	*v	*	*	*	*	*	*	*	*	*	*	*	*	*	*	*	*
=18	=18	=18	=18	=18	=18	=18	=18	=18	=18	=18	=18	=18	=18	=18	=18	=18	=18
*	*	*	*	*	*	*	*	*	*	*	*	*	*2\left	*	*	*	*
4.DD-/ 4.D-	(>2d-/ 2f 2dd-	.	4.D-/	.	.	2A-/	płasz-	.	2f/	.	.	.	2dd-\	Ciemny	las	.	.
8CC/ 8C	.	.	8C/	.	.	.	.	.	.	.	.	.	.	.	.	.	.
*	*	*	*	*	*	*	*	*	*	*	*	*	*2\right	*	*	*	*
4BBB-/ 4BB-	4d-/) 4f	.	4BB-/	.	.	4B-/	-czema	.	4d-/	.	.	.	4f/	las	two-	.	.
4AAA-/ 4AA-	4d-/ 4f	.	4AA-/	.	.	4d-\	jan-	.	4f/	.	.	.	4f/	twym]]	-im	.	.
1GGGn 1GGn	[<1d- 1f [>1b-	.	(<1GGn	.	.	2.d-\	-cza	.	2.f/	.	.	.	2.b-\	.	płasz-	.	.
.	.	.	.	.	.	4d-\	.	.	4f/	.	.	.	4b-\	.	-czem	.	.
=19	=19	=19	=19	=19	=19	=19	=19	=19	=19	=19	=19	=19	=19	=19	=19	=19	=19
!	!LO:TX:b:t=legatissimo:color=blue	!	!	!	!	!	!	!	!	!	!	!	!	!	!	!	!
1GGG-X 1GG-X	1d-] 1f-X 1b-]	.	2.GG-X/)	.	.	4.d-\	.	.	4.f-X/	.	.	.	4.b-\	.	a	.	.
.	.	.	.	.	.	8d-\	.	.	8f-/	.	.	.	8b-\	.	jan-	.	.
.	.	.	.	.	.	4d-\	.	.	4f-/	.	.	.	4b-\	.	-cza-	.	.
.	.	.	4G-\	ry	.	4d-\	.	.	4f-/	.	.	.	4b-\	.	-ry	.	.
!	!	!	!LO:S:color=blue	!	!	!LO:S:color=blue	!	!	!LO:S:color=blue	!	!	!	!LO:S:color=blue	!	!	!	!
(>2G-X\	(<2d-^</ 2f- (>2b-	.	(>2G-\	stra-	.	(>2B-\	.	.	(<2d-/	.	.	.	(>2b-\	.	stra-	.	.
2GG-/)	2An/) 2c 2e-)	.	2GG-/)	-chu	.	2An\)	.	.	2c/)	.	.	.	2e-/)	.	-chu	.	.
=20	=20	=20	=20	=20	=20	=20	=20	=20	=20	=20	=20	=20	=20	=20	=20	=20	=20
*^	*^	*	*	*	*	*	*	*	*	*	*	*	*	*	*	*	*
*	*^	*	*	*	*	*	*	*	*	*	*	*	*	*	*	*	*	*	*
!	!	!	!	!	!	!	!	!	!	!	!	!	!	!	!	!LO:TX:a:t=legatissimo.:color=blue:rj	!	!	!	!
1AA-	2GG-\	1ryy	2e-/	1.c-X	.	[<1AA-	tur-	.	2A-X/	.	.	2c-X/	.	.	.	2e-/	.	twój	.	.
.	4FF\	.	4f/	.	.	.	.	.	4A-/	.	.	4c-/	.	.	.	4f/	.	tur-	.	.
.	4EE-\	.	4g-/	.	.	.	.	.	4A-/	.	.	4c-/	.	.	.	4g-/	.	-ban	.	.
2F/	2DDn\	4.AA-/	2a-/	.	.	4.AA-/]	.	.	4.F/	.	.	4.c-/	.	.	.	4.a-/	.	z chmur	[[wciąż]]	.
.	.	8AA-/	.	.	.	8AA-/	-ban	.	8F/	.	.	8c-/	.	.	.	8a-/	.	haf-	.	.
2G-/	2EE-\	4AA-/	4.cc/	2cn\	.	4AA-/	twój	.	4F/	.	.	4cn/	.	.	.	4cc\	.	-tu-	.	.
.	.	4AA-/	.	.	.	4AA-/	haf:	.	4F/	.	.	4c/	.	.	.	4b-\	.	-ją	.	.
.	.	.	8b-/	.	.	.	.	.	.	.	.	.	.	.	.	.	.	.	.	.
*	*v	*v	*	*	*	*	*	*	*	*	*	*	*	*	*	*	*	*	*	*
!!LO:PB:g=original
=21	=21	=21	=21	=21	=21	=21	=21	=21	=21	=21	=21	=21	=21	=21	=21	=21	=21	=21	=21
2A-/	(<2FF\	(>4b-/	[<1d-	.	4F\	.	.	4A-/	.	.	4d-/	.	.	.	4b-/	błys-	.	.	.
.	.	4a-/	.	.	4D-\	.	.	4F/	.	.	4d-/	.	.	.	4a-/	-ka-	.	.	.
2G-/	2BB-\	4d-/	.	.	4BB-/	.	.	4G-/	.	.	4d-/	.	.	.	4d-/	-wic	.	.	.
.	.	4e-/	.	.	4BB-/	.	.	4G-/	.	.	4d-/	.	.	.	4e-/	po-	.	.	.
2A-/	2AA-\)	2f/	2d-\]	.	2AA-/	.	.	2A-/	.	.	2d-/	.	.	.	2f/	-to-	.	.	.
2ryy	4r	4e-/)	4c\	.	4AA-/	.	.	4A-/	.	.	4c/	.	.	.	4e-/	-ki...	.	.	.
.	4AA-\	4r	4ryy	.	4r	.	.	4r	.	.	4r	.	.	.	4r	.	.	.	.
*v	*v	*	*	*	*	*	*	*	*	*	*	*	*	*	*	*	*	*	*
=22	=22	=22	=22	=22	=22	=22	=22	=22	=22	=22	=22	=22	=22	=22	=22	=22	=22	=22
!	!	!	!	!	!	!	!LO:TX:a:t=J:color=red	!	!	!	!	!	!	!	!	!	!	!
2D-^>\	2r	2.ryy	.	0r	.	.	0r	.	.	0r	.	.	.	0r	.	.	.	.
2FF^>\	4r	.	.	.	.	.	.	.	.	.	.	.	.	.	.	.	.	.
.	4ryy	4d-\	.	.	.	.	.	.	.	.	.	.	.	.	.	.	.	.
2.EE-\	2r	2g-^>\	.	.	.	.	.	.	.	.	.	.	.	.	.	.	.	.
.	4b-/	2B-^>\	.	.	.	.	.	.	.	.	.	.	.	.	.	.	.	.
4DD-\	8cc/L	.	.	.	.	.	.	.	.	.	.	.	.	.	.	.	.	.
.	8dd-/J	.	.	.	.	.	.	.	.	.	.	.	.	.	.	.	.	.
*	*v	*v	*	*	*	*	*	*	*	*	*	*	*	*	*	*	*	*
=23	=23	=23	=23	=23	=23	=23	=23	=23	=23	=23	=23	=23	=23	=23	=23	=23	=23
*^	*	*	*	*	*	*	*	*	*	*	*	*	*	*	*	*	*
2r	2.CC\	2ee-/	.	0r	.	.	0r	.	.	0r	.	.	.	0r	.	.	.	.
2E-/	.	4g-/	.	.	.	.	.	.	.	.	.	.	.	.	.	.	.	.
.	4BB-\	8a-/L	.	.	.	.	.	.	.	.	.	.	.	.	.	.	.	.
.	.	8b-/J	.	.	.	.	.	.	.	.	.	.	.	.	.	.	.	.
2A-/	1AA-^>	4.cc/	.	.	.	.	.	.	.	.	.	.	.	.	.	.	.	.
.	.	8b-/	.	.	.	.	.	.	.	.	.	.	.	.	.	.	.	.
2C^>/	.	4a-/	.	.	.	.	.	.	.	.	.	.	.	.	.	.	.	.
.	.	4g-/	.	.	.	.	.	.	.	.	.	.	.	.	.	.	.	.
=24	=24	=24	=24	=24	=24	=24	=24	=24	=24	=24	=24	=24	=24	=24	=24	=24	=24	=24
*	*	*^	*	*	*	*	*	*	*	*	*	*	*	*	*	*	*	*
2ryy	1AAn	2.f/	2.f^<\	.	1r	.	.	1r	.	.	1r	.	.	.	1r	.	.	.	.
[>2F^>/	.	.	.	.	.	.	.	.	.	.	.	.	.	.	.	.	.	.	.
.	.	4e-/	4ryy	.	.	.	.	.	.	.	.	.	.	.	.	.	.	.	.
!	!	!	!	!	!	!	!LO:DY:a:rj	!	!	!LO:DY:a:rj	!	!	!	!LO:DY:a:rj	!	!	!	!	!LO:DY:a:rj
2F/]	4.BB-\	2.B-/ 2.d-	1ryy	.	2.D-\	.	pp	2.D-/	.	pp	2.d-/	.	.	pp	2.d-/	.	.	.	pp
.	8AA\	.	.	.	.	.	.	.	.	.	.	.	.	.	.	.	.	.	.
2G-/	4GG-\	.	.	.	.	.	.	.	.	.	.	.	.	.	.	.	.	.	.
!	!	!	!	!	!	!	!	!	!	!	!	!	!	!	!LO:TX:a:t=senza:rj	!	!	!	!
.	4EE-\	4c/ 4e-	.	.	4E-\	.	.	4E-/	.	.	4e-/	.	.	.	4e-/	.	.	.	.
=25	=25	=25	=25	=25	=25	=25	=25	=25	=25	=25	=25	=25	=25	=25	=25	=25	=25	=25	=25
!	!	!	!	!	!	!	!	!LO:TX:a:t=col Sopr	!	!	!	!	!	!	!	!	!	!LO:DY:a	!
4A-/	1AA-	4f/	2d-\	.	4F\	.	.	(<4F/yy	.	.	4f/	.	.	.	(<4f/	.	.	.	<
8G-/L	.	4g-/	.	.	4G-\	.	.	4G-/)yy	.	.	4g-\@	.	.	.	4g-/)	.	.	.	.
8F/J	.	.	.	.	.	.	.	.	.	.	.	.	.	.	.	.	.	.	.
8E-/L	.	4a-/	4c\	.	4A-\	.	.	4A-/yy	.	.	4a-\@	.	.	.	4a-/	.	.	.	.
8F/J	.	.	.	.	.	.	.	.	.	.	.	.	.	.	.	.	.	.	.
!	!	!	!	!	!	!	!	!	!	!	!LO:TX:b:t=(x):color=blue	!	!	!	!	!	!	!	!
[>4G-/	.	8b-/L	4e-\	.	8B-\L	.	.	8B-\Lyy	.	.	8b-\L@	.	.	.	8b-\L	.	.	.	.
.	.	8cc/J	.	.	8c\J	.	.	8c\Jyy	.	.	8cc\J@	.	.	.	8cc\J	.	.	.	.
2G-/]	2BB--\	2.dd-/	4d-\	.	2.d-\	.	.	2.d-\yy	.	.	2.dd-\@	.	.	.	2.dd-\	.	.	.	.
.	.	.	4e-\	.	.	.	.	.	.	.	.	.	.	.	.	.	.	.	.
2D-/ 2A-	2AA-\	.	4f\	.	.	.	.	.	.	.	.	.	.	.	.	.	.	.	.
.	.	4cc-X/	8g-\L	.	4A-\@	.	.	4c-X\yy	.	.	4a-/@	.	.	.	4cc-X\	.	.	.	.
.	.	.	8a-\J	.	.	.	.	.	.	.	.	.	.	.	.	.	.	.	.
*	*	*v	*v	*	*	*	*	*	*	*	*	*	*	*	*	*	*	*	*
=26	=26	=26	=26	=26	=26	=26	=26	=26	=26	=26	=26	=26	=26	=26	=26	=26	=26	=26
!	!	!	!	!LO:N:xstem	!	!	!	!	!	!	!	!	!	!	!	!	!	!
[>1D-	2GG-\	(<4a-/ 4cc-X	.	4A-\@	.	.	4c-X\yy	.	.	4a-/@	.	.	.	4cc-X\	.	.	.	.
!	!	!	!	!LO:N:xstem	!	!	!	!	!	!	!	!	!	!	!	!	!	!
.	.	4g-/ 4b--	.	4G-\@	.	.	4B--\yy	.	.	4g-/@	.	.	.	4b--\	.	.	.	.
!	!	!	!	!LO:N:xstem	!	!	!	!	!	!	!	!	!	!	!	!	!	!
.	4AA-\	4f/ 4a-	.	4F\@	.	.	4A-\yy	.	.	4f/@	.	.	.	4a-\	.	.	.	.
!	!	!	!	!LO:N:xstem	!	!	!	!	!	!	!	!	!	!	!	!	!	!
.	4BB-\	4e-/ 4g-	.	4E-\@	.	.	4G-\yy	.	.	4e-/@	.	.	.	4g-\	.	.	.	.
!	!	!	!	!LO:N:xstem	!	!	!	!	!	!	!	!	!	!	!	!	!	!
4DD-/ 4D-]	1ryy	4f/ 4a-	.	4F\@	.	.	4A-/	.	.	4f/@	.	.	.	4a-\	.	.	.	.
4DD-'>/ 4D-	.	4d-/) 4f	.	8D-\@	.	.	8F/	.	.	8d-/@	.	.	.	8f/	.	.	.	.
.	.	.	.	8r	.	.	8r	.	.	8r@	.	.	.	8r	.	.	.	.
4DD-/ 4D-	.	4f'</ 4a-	.	4D-'>\	.	.	4d-'</	.	.	4f'</@	.	.	.	4a-'>\	.	.	.	.
4DD-/ 4D-	.	4f'</ 4a-	.	4D-'>\	.	.	4d-'</	.	.	4f'</@	.	.	.	4a-'>\	.	.	.	.
*v	*v	*	*	*	*	*	*	*	*	*	*	*	*	*	*	*	*	*
!!LO:LB:g=original
=27||	=27||	=27||	=27||	=27||	=27||	=27||	=27||	=27||	=27||	=27||	=27||	=27||	=27||	=27||	=27||	=27||	=27||
*M2/2	*M2/2	*	*M2/2	*	*	*M2/2	*	*	*M2/2	*	*	*	*M2/2	*	*	*	*
*met(c|)	*met(c|)	*	*met(c|)	*	*	*met(c|)	*	*	*met(c|)	*	*	*	*met(c|)	*	*	*	*
4DD-/ 4D-	(<4f/ 4a-	.	2D-\	.	.	2d-\	.	.	2f/	.	.	.	2a-/	.	.	.	.
4DD-/ 4D-	4d-/) 4f	.	.	.	.	.	.	.	.	.	.	.	.	.	.	.	.
4DD-/ 4D-	4f'</ 4a-	.	4D-\	.	.	4d-'>\	.	.	4f'</	.	.	.	4a-'</	.	.	.	.
4DD-/ 4D-	4f'</ 4a-	.	4D-\	.	.	4d-'>\	.	.	4f'</	.	.	.	4a-'</	.	.	.	.
=28	=28	=28	=28	=28	=28	=28	=28	=28	=28	=28	=28	=28	=28	=28	=28	=28	=28
*rep	*	*	*	*	*	*	*	*	*	*	*	*	*	*	*	*	*
4DD-/ 4D-	(<4f/ 4an	<	2D-\	.	.	2d-\	.	.	2f/	.	.	.	2an/	.	.	.	.
4DD-/ 4D-	4d-/) 4f	.	.	.	.	.	.	.	.	.	.	.	.	.	.	.	.
4DD-/ 4D-	4f/ 4a	.	4D-\	.	.	4d-'>\	.	.	4f'</	.	.	.	4a'</	.	.	.	.
!LO:TX:t=cres._cen_do.:problem=dynamics with extention lines	!LO:HP:t=cres.-cen-do:ext=ud	!	!	!	!	!	!	!	!	!	!	!	!	!	!	!	!
4DD-/ 4D-	4f/ 4a	.	4D-\	.	.	4d-'>\	.	.	4f'</	.	.	.	4a'</	.	.	.	.
*Xrep	*	*	*	*	*	*	*	*	*	*	*	*	*	*	*	*	*
=29	=29	=29	=29	=29	=29	=29	=29	=29	=29	=29	=29	=29	=29	=29	=29	=29	=29
*rep	*rep	*	*	*	*	*	*	*	*	*	*	*	*	*	*	*	*
4DD-/ 4D-	(<4f/ 4an	.	2D-\	.	.	2d-\	.	.	2f/	.	.	.	2an/	.	.	.	.
4DD-/ 4D-	4d-/) 4f	.	.	.	.	.	.	.	.	.	.	.	.	.	.	.	.
4DD-/ 4D-	4f/ 4a	.	4D-\	.	.	4d-'>\	.	.	4f'</	.	.	.	4a'</	.	.	.	.
4DD-/ 4D-	4f/ 4a	.	4D-\	.	.	4d-'>\	.	.	4f'</	.	.	.	4a'</	.	.	.	.
*Xrep	*Xrep	*	*	*	*	*	*	*	*	*	*	*	*	*	*	*	*
=30	=30	=30	=30	=30	=30	=30	=30	=30	=30	=30	=30	=30	=30	=30	=30	=30	=30
4DD-/ 4D-	4f/ 4b-	.	4D-\	.	.	4d-\	.	.	4f/	.	.	.	4b-/	.	.	.	.
4FF/ 4F	(<4f/	.	8F\	.	.	8B-\	.	.	8f/	.	.	.	8f/	.	.	.	.
.	.	.	8r	.	.	8r	.	.	8r	.	.	.	8r	.	.	.	.
!	!	!	!	!	!LO:DY:a:rj	!	!	!LO:DY:a:rj	!	!	!	!LO:DY:a:rj	!	!	!	!	!LO:DY:a:rj
4DD-/ 4D-	4b-/)	.	4B-'>\	.	f	4d-'>\	.	f	4f/'<	.	.	f	4b-'>\	.	.	.	f
4BBB-/ 4BB-	4d-/ 4dd-	[[	4B-'>\	.	.	4d-'>\	.	.	4f'</	.	.	.	4dd-'>\	.	.	.	.
=31	=31	=31	=31	=31	=31	=31	=31	=31	=31	=31	=31	=31	=31	=31	=31	=31	=31
!	!	!	!	!	!LO:HP:a	!	!	!LO:HP:a	!	!	!	!LO:HP:a	!	!	!	!	!LO:HP:a
(<4EE-/ 4E-	4B-^</ 4e- 4g- 4cc	.	1B-	.	>]	1e-	.	>]	1g-	.	.	>]	1cc	.	.	.	>]
4GG-/) 4G-	4B-/ 4e-	f	.	.	.	.	.	.	.	.	.	.	.	.	.	.	.
4FF/ 4F	4B-/ 4g-	.	.	.	.	.	.	.	.	.	.	.	.	.	.	.	.
4EE-/ 4E-	4B-/ 4g-	.	.	.	.	.	.	.	.	.	.	.	.	.	.	.	.
=32	=32	=32	=32	=32	=32	=32	=32	=32	=32	=32	=32	=32	=32	=32	=32	=32	=32
4DD-/ 4D-	4B-/ 4f 4b-	.	4D-\	.	.	4f\	.	.	4f/	.	.	.	4b-\	.	.	.	.
4FF/ 4F	4f/	.	4r	.	.	4r	.	.	4r	.	.	.	4r	.	.	.	.
4DD-/ 4D-	4f/ 4b-	.	4B-\	.	.	4d-\	.	.	4f/	.	.	.	4b-\	.	.	.	.
4BBB-/ 4BB-	4f/ 4dd-	.	4B-\	.	.	4d-\	.	.	4f/	.	.	.	4dd-\	.	.	.	.
=33	=33	=33	=33	=33	=33	=33	=33	=33	=33	=33	=33	=33	=33	=33	=33	=33	=33
4EE-/ 4E-	4B-^</ 4e- 4g- 4cc	.	1B-	.	.	1e-	.	.	1g-	.	.	.	1cc	.	.	.	.
4GG-/ 4G-	4B-/ 4e-	.	.	.	.	.	.	.	.	.	.	.	.	.	.	.	.
4FF/ 4F	4B-/ 4g-	.	.	.	.	.	.	.	.	.	.	.	.	.	.	.	.
4EE-/ 4E-	4B-/ 4g-	.	.	.	.	.	.	.	.	.	.	.	.	.	.	.	.
=34	=34	=34	=34	=34	=34	=34	=34	=34	=34	=34	=34	=34	=34	=34	=34	=34	=34
4DD-/ 4D-	4B-/ 4f 4b-	.	8D-\	.	.	8f\	.	.	8f/	.	.	.	8b-\	.	.	.	.
.	.	.	8r	.	.	8r	.	.	8r	.	.	.	8r	.	.	.	.
!	!	!	!	!	!	!	!	!	!LO:TX:a:t=P:problem=podwójne akcenty (pod i nad nutą) w ćwierćnutach	!	!	!	!	!	!	!	!
4BBB-^</ 4BB-	4B-^</ 4b-	.	4B-^>\	.	.	4B-^>\	.	.	4B-^>/ 4b-	.	.	.	4b-^>\	.	.	.	.
4CC^</ 4C	4c^</ 4cc	.	4c^>\	.	.	4c^>\	.	.	4c^>/ 4cc	.	.	.	4cc^>\	.	.	.	.
4DD-^</ 4D-	4d-^</ 4dd-	.	4d-^>\	.	.	4d-^>\	.	.	4d-^>/ 4dd-	.	.	.	4dd-^>\	.	.	.	.
!!LO:PB:g=original
=35	=35	=35	=35	=35	=35	=35	=35	=35	=35	=35	=35	=35	=35	=35	=35	=35	=35
*^	*	*	*	*	*	*	*	*	*^	*	*	*	*	*	*	*	*
!	!	!	!	!	!	!LO:DY:a:rj	!	!	!LO:DY:a:rj	!	!	!	!	!LO:DY:a:rj	!	!	!	!	!LO:DY:a:rj
4E-/	2EE-\	[<2.e-^</ [>2.ee-	.	[<2.E-\ [>2.e-^>	.	ff	[>2.e-\^>	.	ff	2.ryy	[>2.e-\ (>2.ee-	.	.	ff	[>2.ee-^>\	.	.	.	ff
4E-/	.	.	.	.	.	.	.	.	.	.	.	.	.	.	.	.	.	.	.
4BB-/	2BBB-\	.	.	.	.	.	.	.	.	.	.	.	.	.	.	.	.	.	.
4BB-/	.	8e-/L] 8ee-]	.	8E-\] 8e-]	.	.	8e-\]	.	.	8e-/	8e-\])	.	.	.	8ee-\]	.	.	.	.
.	.	8E-/J 8e-	.	8E-\	.	.	8E-/	.	.	8e-/	8ryy	.	.	.	8e-/	.	.	.	.
*	*	*	*	*	*	*	*	*	*	*v	*v	*	*	*	*	*	*	*	*
=36	=36	=36	=36	=36	=36	=36	=36	=36	=36	=36	=36	=36	=36	=36	=36	=36	=36	=36
*	*	*	*	*^	*	*	*	*	*	*	*	*	*	*	*	*	*	*
4GG-/	2GGG-\	2E-^</ 2e-	.	2E-/	2E-\^^>	.	.	2E-^</	.	.	2e-^</	.	.	.	2e-^</	.	.	.	.
4GG-/	.	.	.	.	.	.	.	.	.	.	.	.	.	.	.	.	.	.	.
4GG-/	4GGG-/	2E-^</ 2e-	.	2E-/	2E-\	.	.	2E-^</	.	.	2e-^</	.	.	.	2e-^</	.	.	.	.
4GG-/	4FFF/	.	.	.	.	.	.	.	.	.	.	.	.	.	.	.	.	.	.
*	*	*	*	*v	*v	*	*	*	*	*	*	*	*	*	*	*	*	*	*
=37	=37	=37	=37	=37	=37	=37	=37	=37	=37	=37	=37	=37	=37	=37	=37	=37	=37	=37
*	*	*^	*	*	*	*	*	*	*	*	*	*	*	*	*	*	*	*
!	!	!	!	!	!	!	!LO:HP:a	!	!	!LO:HP:a	!	!	!	!LO:HP:a	!	!	!	!	!LO:HP:a
4EE-/	1GGG-	[>1e-^>	4E-\	.	1E-	.	>]	1E-	.	>]	1e-	.	.	>]	1e-	.	.	.	>]
4EE-/	.	.	4E-\	>	.	.	.	.	.	.	.	.	.	.	.	.	.	.	.
4EE-/	.	.	4E-\	.	.	.	.	.	.	.	.	.	.	.	.	.	.	.	.
4EE-/	.	.	4E-\	.	.	.	.	.	.	.	.	.	.	.	.	.	.	.	.
*v	*v	*	*	*	*	*	*	*	*	*	*	*	*	*	*	*	*	*	*
*	*v	*v	*	*	*	*	*	*	*	*	*	*	*	*	*	*	*	*
=38	=38	=38	=38	=38	=38	=38	=38	=38	=38	=38	=38	=38	=38	=38	=38	=38	=38
4EE-/	4E-/ 4e-]	.	4E-\	.	.	4E-/	.	.	4e-/	.	.	.	4e-/	.	.	.	.
4DD-/ 4D-	4G-/ 4B-	.	4r	.	.	4r	.	.	4r	.	.	.	4r	.	.	.	.
!	!	!LO:DY:rj	!	!	!LO:DY:a:rj	!	!	!LO:DY:a:rj	!	!	!	!LO:DY:a:rj	!	!	!	!	!LO:DY:a:rj
4CC/ 4C	4G-/ 4e-	] p	4C/	.	p	4G-/	.	p	4e-/	.	.	p	4e-/	.	.	.	p
4BBB-/ 4BB-	4B-/ 4e- 4g-	.	4C/	.	.	4E-/	.	.	4e-/	.	.	.	4g-/	.	.	.	.
=39	=39	=39	=39	=39	=39	=39	=39	=39	=39	=39	=39	=39	=39	=39	=39	=39	=39
4AAAn/ 4AAn	4c'</ 4f	.	1AAn	.	.	1E-	.	.	1c	.	.	.	1f	.	.	.	.
4FFF/ 4FF	4An'</ 4e- 4f	.	.	.	.	.	.	.	.	.	.	.	.	.	.	.	.
4GGG-/ 4GG-	4B-'</ 4e- 4f	.	.	.	.	.	.	.	.	.	.	.	.	.	.	.	.
4AAA/ 4AA	4c'</ 4e- 4f	.	.	.	.	.	.	.	.	.	.	.	.	.	.	.	.
=40	=40	=40	=40	=40	=40	=40	=40	=40	=40	=40	=40	=40	=40	=40	=40	=40	=40
4BBB-/ 4BB-	4G-X'</ 4e-	.	4BB-/	.	.	4G-/	.	.	4e-/	.	.	.	4e-/	.	.	.	.
4DD-/ 4D-X	4G-'</ 4B-	.	4r	.	.	4ryy	.	.	4r	.	.	.	4r	.	.	.	.
4CC/ 4C	4G-'</ 4e-	.	4C/	.	.	4G-/	.	.	4e-/	.	.	.	4e-/	.	.	.	.
4BBB-/ 4BB-	4G-'</ 4e- 4g-	.	4BB-/	.	.	4E-/	.	.	4e-/	.	.	.	4g-/	.	.	.	.
=41	=41	=41	=41	=41	=41	=41	=41	=41	=41	=41	=41	=41	=41	=41	=41	=41	=41
4AAAn/ 4AAn	4A-'</ 4c 4f	.	1AAn	.	.	1E-	.	.	1c	.	.	.	1f	.	.	.	.
4FFF/ 4FF	4An'</ 4f	.	.	.	.	.	.	.	.	.	.	.	.	.	.	.	.
4GGG-/ 4GG-	4B-'</ 4f	.	.	.	.	.	.	.	.	.	.	.	.	.	.	.	.
4AAA/ 4AA	4A/ 4c 4f	.	.	.	.	.	.	.	.	.	.	.	.	.	.	.	.
=42	=42	=42	=42	=42	=42	=42	=42	=42	=42	=42	=42	=42	=42	=42	=42	=42	=42
4BBB-/ 4BB-	4G-X/ 4e-	.	8BB-/	.	.	8G-/	.	.	8e-/	.	.	.	8e-/	.	.	.	.
.	.	.	8r	.	.	8r	.	.	8r	.	.	.	8r	.	.	.	.
!	!	!	!	!	!LO:DY:a:rj	!	!	!	!	!	!	!LO:DY:a:rj	!	!	!	!	!LO:DY:a:rj
4DDn^</ 4Dn	4dn^</	.	4Dn^>\	.	f	4Dn^</	.	.	4dn^</	.	.	f	4dn^</	.	.	.	f
4EE-^</ 4E-	4e-^</	.	4E-^>\	.	.	4E-^</	.	.	4e-^</	.	.	.	4e-^</	.	.	.	.
4FF^</ 4F	4f^</	.	4F^>\	.	.	4F^</	.	.	4f/	.	.	.	4f^</	.	.	.	.
!!LO:LB:g=original
=43	=43	=43	=43	=43	=43	=43	=43	=43	=43	=43	=43	=43	=43	=43	=43	=43	=43
*^	*	*	*	*	*	*	*	*	*	*	*	*	*	*	*	*	*
4G-/	2GG-X\	[>2.g-X/	.	[>2.G-X\	.	.	[<2.G-X/	.	.	[<2.g-X^</	.	.	.	2.g-X/	niem...	.	.	.
4G-/	.	.	.	.	.	.	.	.	.	.	.	.	.	.	.	.	.	.
4E-/	2EE-\	.	.	.	.	.	.	.	.	.	.	.	.	.	.	.	.	.
4E-/	.	8g-/L]	.	8G-\]	.	.	8G-/]	.	.	8g-/]	.	.	.	4r	.	.	.	.
.	.	8G-/J	.	8GG-/	.	.	8G-/	.	.	8G-X/	.	.	.	.	.	.	.	.
=44	=44	=44	=44	=44	=44	=44	=44	=44	=44	=44	=44	=44	=44	=44	=44	=44	=44	=44
4BB-/	2.BBB-\	2G-^</	.	2GG-/	.	.	2G-X/	.	.	2G-X^>/	.	.	.	1r	.	.	.	.
4BB-/	.	.	.	.	.	.	.	.	.	.	.	.	.	.	.	.	.	.
4BB-/	.	2G-^</	.	2GG-/	.	.	2G-/	.	.	2G-^>/	.	.	.	.	.	.	.	.
4AA-/	4AAA-\	.	.	.	.	.	.	.	.	.	.	.	.	.	.	.	.	.
=45	=45	=45	=45	=45	=45	=45	=45	=45	=45	=45	=45	=45	=45	=45	=45	=45	=45	=45
!	!	!	!	!	!	!	!	!	!	!	!	!	!LO:DY:a	!	!	!	!	!
4GG-/	1GGG-	[<1G-	>	1GG-X	.	.	1G-X	.	>]	1G-X	.	.	>]	1r	.	.	.	.
4GG-/	.	.	.	.	.	.	.	.	.	.	.	.	.	.	.	.	.	.
4GG-/	.	.	.	.	.	.	.	.	.	.	.	.	.	.	.	.	.	.
4GG-/	.	.	.	.	.	.	.	.	.	.	.	.	.	.	.	.	.	.
*v	*v	*	*	*	*	*	*	*	*	*	*	*	*	*	*	*	*	*
=46	=46	=46	=46	=46	=46	=46	=46	=46	=46	=46	=46	=46	=46	=46	=46	=46	=46
*tremolo	*	*	*	*	*	*	*	*	*	*	*	*	*	*	*	*	*
!	!	!	!	!	!	!	!	!	!	!	!	!	!LO:TX:a:t=J:color=red	!	!	!	!
16GGG-/LL	4G-/]	]	4GG-X/	.	.	4G-X/	.	.	4G-X/	.	.	.	1r	.	.	.	.
16GG-/	.	.	.	.	.	.	.	.	.	.	.	.	.	.	.	.	.
16GGG-/	.	.	.	.	.	.	.	.	.	.	.	.	.	.	.	.	.
16GG-/	.	.	.	.	.	.	.	.	.	.	.	.	.	.	.	.	.
!	!	!	!	!	!	!	!	!	!LO:TX:a:t=quasi Recit.	!	!	!	!	!	!	!	!
16GGG-/	4r	.	4r	.	.	4r	.	.	4r	.	.	.	.	.	.	.	.
16GG-/	.	.	.	.	.	.	.	.	.	.	.	.	.	.	.	.	.
16GGG-/	.	.	.	.	.	.	.	.	.	.	.	.	.	.	.	.	.
16GG-/JJ	.	.	.	.	.	.	.	.	.	.	.	.	.	.	.	.	.
*Xtremolo	*	*	*	*	*	*	*	*	*	*	*	*	*	*	*	*	*
4GGG-/	2B-/	.	4.BB-/	.	.	2r	.	.	4B-/	[[po-	mię-	.	.	.	.	.	.
4r	.	.	.	.	.	.	.	.	4B-/	-de sła]]	-dzy	.	.	.	.	.	.
.	.	.	8BB-/	.	.	.	.	.	.	.	.	.	.	.	.	.	.
=47	=47	=47	=47	=47	=47	=47	=47	=47	=47	=47	=47	=47	=47	=47	=47	=47	=47
2E-\	2e-/	.	2E-\	.	.	1r	.	.	2e-/	świa-	.	.	1r	.	.	.	.
4.BB-/	4.B-/	.	4.BB-/	.	.	.	.	.	4.B-/	-tem	.	.	.	.	.	.	.
8E-\	8e-/	.	8E-\	.	.	.	.	.	8e-/	i	.	.	.	.	.	.	.
=48	=48	=48	=48	=48	=48	=48	=48	=48	=48	=48	=48	=48	=48	=48	=48	=48	=48
4G-X\	4g-X/	.	2G-X\	.	.	1r	.	.	2g-X/	nie-	.	.	1r	.	.	.	.
4r	4r	.	.	.	.	.	.	.	.	.	.	.	.	.	.	.	.
4.G-\	4.g-/	.	4G-\	.	.	.	.	.	4g-/	-bem	.	.	.	.	.	.	.
.	.	.	8r	.	.	.	.	.	8r	.	.	.	.	.	.	.	.
8A-\	8a-/	.	8A-\	.	.	.	.	.	8a-/	jak	.	.	.	.	.	.	.
=49	=49	=49	=49	=49	=49	=49	=49	=49	=49	=49	=49	=49	=49	=49	=49	=49	=49
2B-\	2b-/	.	2B-\	.	.	1r	.	.	2b-\	drog-	.	.	1r	.	.	.	.
4.A-\	4.a-/	.	4.A-\	.	.	.	.	.	4.a-\	-man	.	.	.	.	.	.	.
8B-\	8b-/	.	8B-\	.	.	.	.	.	8b-\	stwo-	.	.	.	.	.	.	.
=50	=50	=50	=50	=50	=50	=50	=50	=50	=50	=50	=50	=50	=50	=50	=50	=50	=50
(>4A-\	(<4a-/	.	4A-\	.	.	2r	.	.	4a-/	-rze-	.	.	2r	.	.	.	.
8G-\)	8g-/)	.	4G-\	.	.	.	.	.	4g-/	-nie	.	.	.	.	.	.	.
8r	8r	.	.	.	.	.	.	.	.	.	.	.	.	.	.	.	.
4.E-\	4.e-/	.	2r	.	.	4.E-/	.	.	2r	.	.	.	4.e-/	po-	.	.	.
8E-\	8e-/	.	.	.	.	8E-/	.	.	.	.	.	.	8e-/	-de-	.	.	.
=51	=51	=51	=51	=51	=51	=51	=51	=51	=51	=51	=51	=51	=51	=51	=51	=51	=51
2.GG-/ [>2.E-	2B-/ 2g-	.	1r	.	.	2G-/	.	.	1r	.	.	.	2g-/	-sław-	.	.	.
.	4.e-/	.	.	.	.	4.E-/	.	.	.	.	.	.	4.e-/	-szy	.	.	.
8E-/L]	.	.	.	.	.	.	.	.	.	.	.	.	.	.	.	.	.
8G-/J	8g-/	.	.	.	.	8G-/	.	.	.	.	.	.	8g-/	pod	.	.	.
!!LO:PB:g=original
=52	=52	=52	=52	=52	=52	=52	=52	=52	=52	=52	=52	=52	=52	=52	=52	=52	=52
!LO:TX:t=P:problem=końcówki łuków w źródle	!LO:TX:t=P:problem=końcówki łuków w źródle	!	!	!	!	!	!	!	!	!	!	!	!	!	!	!	!
[<1GG- [>1E-	2b-/	.	1r	.	.	4.B-\	.	.	1r	.	.	.	4.b-\	no-	.	.	.
.	.	.	.	.	.	8B-\	.	.	.	.	.	.	8b-\	-gi	.	.	.
.	4.B-/ 4.b-	.	.	.	.	4.B-\	.	.	.	.	.	.	4.b-\	zie-	.	.	.
.	8c/ 8cc	.	.	.	.	8c\	.	.	.	.	.	.	8cc\	-mię,	.	.	.
=53	=53	=53	=53	=53	=53	=53	=53	=53	=53	=53	=53	=53	=53	=53	=53	=53	=53
1GG-_< 1E-_>	(<2d-/ 2dd-	.	1r	.	.	2d-\	.	.	1r	.	.	.	2dd-\	lu-	.	.	.
.	4c/ 4cc	.	.	.	.	4c\	.	.	.	.	.	.	4cc\	-dzi	.	.	.
.	4d-/ 4dd-	.	.	.	.	4d-\	.	.	.	.	.	.	4dd-\	i	.	.	.
=54	=54	=54	=54	=54	=54	=54	=54	=54	=54	=54	=54	=54	=54	=54	=54	=54	=54
1GG-] 1E-]	1B-) 1b-	.	1ryy	.	.	2.B-\	.	.	1r	.	.	.	2.b-\	.	.	.	.
.	.	.	.	.	.	4G-/	.	.	.	.	.	.	4b-\	.	.	.	.
=55||	=55||	=55||	=55||	=55||	=55||	=55||	=55||	=55||	=55||	=55||	=55||	=55||	=55||	=55||	=55||	=55||	=55||
*M2/1	*M2/1	*	*M2/1	*	*	*M2/1	*	*	*M2/1	*	*	*	*M2/1	*	*	*	*
*^	*	*	*	*	*	*	*	*	*	*	*	*	*	*	*	*	*
!	!	!LO:TX:t=P:ppp=ppp.:problem	!LO:DY:rj	!LO:TX:a:t=dolciſsimo	!	!	!LO:TX:a:t=dolciſsimo.	!	!LO:DY:a:rj	!LO:TX:a:t=dolciſsimo	!	!	!LO:DY:a:rj	!LO:TX:a:t=dolciſsimo	!	!	!	!LO:DY:a:rj
[>0F-X	1GG-	[>0d- [>0b-	ppp	2GG-/	.	.	2F-X/	.	pp	2d-/	.	.	pp	2b-\	Słu-	.	.	pp
.	.	.	.	4GG-/	.	.	4F-/	.	.	4d-/	.	.	.	4b-\	-chasz	.	.	.
.	.	.	.	4GG-/	.	.	4F-/	.	.	4d-/	.	.	.	4b-\	co	.	.	.
.	4.GG-\	.	.	2.GG-/	.	.	2.F-/	.	.	2.d-/	.	.	.	2.b-\	mó-	.	.	.
.	8GG-\	.	.	.	.	.	.	.	.	.	.	.	.	.	.	.	.	.
.	4GG-\	.	.	.	.	.	.	.	.	.	.	.	.	.	.	.	.	.
.	4GG-\	.	.	4GG-/	.	.	4F-/	.	.	4d-/	.	.	.	4b-\	-wi	.	.	.
*v	*v	*	*	*	*	*	*	*	*	*	*	*	*	*	*	*	*	*
=56	=56	=56	=56	=56	=56	=56	=56	=56	=56	=56	=56	=56	=56	=56	=56	=56	=56
1GG- 1F-X]	1d-] 1b-]	.	4.GG-/	.	.	4.F-X/	.	.	4.d-/	.	.	.	4.b-\	Bóg	.	.	.
.	.	.	8GG-/	.	.	8F-/	.	.	8d-/	.	.	.	8b-\	do	.	.	.
.	.	.	4GG-/	.	.	4F-/	.	.	4d-/	.	.	.	4b-\	przy-	.	.	.
.	.	.	4G-\	.	.	4d-\	.	.	4d-/	.	.	.	4b-\	-ro-	.	.	.
!LO:TX:b:t=legatiſs:color=blue	!	!	!	!	!	!	!	!	!	!	!	!	!LO:TX:a:t=legatiſsimo:color=blue	!	!	!	!
(>2G-\	(<2B-/ 2d- 2f-X (>2b-	.	(>2G-\	.	.	(>2B-\	.	.	(<2d-/	.	.	.	(>2b-\	-dze-	.	.	.
2GG-/)	2An/) 2c 2e-)	.	2GG-/)	.	.	2An/)	.	.	2c/)	.	.	.	2e-/)	-nia,	.	.	.
=57	=57	=57	=57	=57	=57	=57	=57	=57	=57	=57	=57	=57	=57	=57	=57	=57	=57
*^	*^	*	*	*	*	*	*	*	*	*	*	*	*	*	*	*	*
1AA-	(<2GG-\	(>2e-/	1A-X 1c-X	.	4.G-\	.	.	4.A-X/	.	.	1c-X	co	.	.	4.e-/	słu-	.	.	.
.	.	.	.	.	8G-\	.	.	8A-/	.	.	.	.	.	.	8e-/	-chasz	.	.	.
.	4FF\	4f/	.	.	4F\	.	.	4A-/	.	.	.	.	.	.	4f/	tyl-	.	.	.
.	4EE-\	4g-/	.	.	4E-\	.	.	4A-/	.	.	.	.	.	.	4g-/	-ko	.	.	.
2F/	4DD-\	4.a-/)	2c-X\	.	(>4D-\	.	.	2F/	.	.	2c-/	mó-	.	.	2a-/	co	.	.	.
.	4DDn\	.	.	.	4Dn\)	.	.	.	.	.	.	.	.	.	.	.	.	.	.
.	.	(>8a-/	.	.	.	.	.	.	.	.	.	.	.	.	.	.	.	.	.
4G-/	4EE-\	4.ccn/	2cn\	.	4E-\	.	.	4G-/	.	.	2cn/	-wi	.	.	4.ccn\	mó-	.	.	.
4Gn/	4EEn\)	.	.	.	4En\	.	.	4Gn/	.	.	.	.	.	.	.	.	.	.	.
.	.	8b-/)	.	.	.	.	.	.	.	.	.	.	.	.	8b-\	-wi	.	.	.
*	*	*v	*v	*	*	*	*	*	*	*	*	*	*	*	*	*	*	*	*
!!LO:LB:g=original
=58	=58	=58	=58	=58	=58	=58	=58	=58	=58	=58	=58	=58	=58	=58	=58	=58	=58	=58
2A-/	(<4FF/	4d-/ (>4b-	.	4F\	.	.	4A-/	.	.	4d-/	.	.	.	4b-/	Bóg	.	.	.
.	4AA-/	4a-/	.	4D-\	.	.	4F/	.	.	4d-/	.	.	.	4a-/	do	.	.	.
4D-/ 4F	2ryy	4d-/	.	4D-\	.	.	4F/	.	.	4d-/	.	.	.	4d-/	przy-	.	.	.
4BB-/ 4G-	.	4d-/ 4e-	.	4BB-/	.	.	4G-/	.	.	4d-/	.	.	.	4e-/	-ro-	.	.	.
2A-/	1AA-)	2.d-/ 2.f	.	1AA-	.	.	(<2A-/	.	.	2.d-/	.	.	.	2.f/	-dze-	.	.	.
2G-/	.	.	.	.	.	.	2G-/)	.	.	.	.	.	.	.	.	.	.	.
.	.	4c/ 4e-	.	.	.	.	.	.	.	4c/	.	.	.	4e-/	.	.	.	.
=59	=59	=59	=59	=59	=59	=59	=59	=59	=59	=59	=59	=59	=59	=59	=59	=59	=59	=59
2AA-/	1DD-	2F/) 2d- (>2f	.	[<1D-	.	.	[<1F	.	.	[<1d-	.	.	.	[<1d-	-nia.	.	.	.
!	!	!LO:TX:b:t=dolciſsimo	!	!	!	!	!	!	!	!	!	!	!	!	!	!	!	!
4AA-/	.	4F/ 4d- 4f	.	.	.	.	.	.	.	.	.	.	.	.	.	.	.	.
4AA-/	.	4F/ 4d- 4f	.	.	.	.	.	.	.	.	.	.	.	.	.	.	.	.
2.AA-/	4.DD-\	2.F/ 2.d- 2.f	.	4D-\]	.	.	4F/]	.	.	4d-/]	.	.	.	4d-/]	.	.	.	.
.	.	.	.	4r	.	.	4r	.	.	4r	.	.	.	4r	.	.	.	.
.	8DD-\	.	.	.	.	.	.	.	.	.	.	.	.	.	.	.	.	.
.	4DD-\	.	.	2r	.	.	2r	.	.	2r	.	.	.	2r	.	.	.	.
4AA-/	4DD-\	4F/ 4d- 4f	.	.	.	.	.	.	.	.	.	.	.	.	.	.	.	.
=60	=60	=60	=60	=60	=60	=60	=60	=60	=60	=60	=60	=60	=60	=60	=60	=60	=60	=60
4.AA-/	1DD-	4.F/ 4.d- 4.f	.	0r	.	.	0r	.	.	0r	.	.	.	0r	.	.	.	.
*	*	*head:invis	*	*	*	*	*	*	*	*	*	*	*	*	*	*	*	*
8AA-/	.	8F 8d- 8f	.	.	.	.	.	.	.	.	.	.	.	.	.	.	.	.
4AA-/	.	4F 4d- 4f	.	.	.	.	.	.	.	.	.	.	.	.	.	.	.	.
4AA-/	.	4F 4d- 4f	.	.	.	.	.	.	.	.	.	.	.	.	.	.	.	.
*	*	*Xhead	*	*	*	*	*	*	*	*	*	*	*	*	*	*	*	*
2.AA-/	4.DD-\	2.F/) 2.d- 2.f	.	.	.	.	.	.	.	.	.	.	.	.	.	.	.	.
.	8DD-\	.	.	.	.	.	.	.	.	.	.	.	.	.	.	.	.	.
.	4DD-\	.	.	.	.	.	.	.	.	.	.	.	.	.	.	.	.	.
4D-/	4D-\	4d-/	.	.	.	.	.	.	.	.	.	.	.	.	.	.	.	.
*v	*v	*	*	*	*	*	*	*	*	*	*	*	*	*	*	*	*	*
=61	=61	=61	=61	=61	=61	=61	=61	=61	=61	=61	=61	=61	=61	=61	=61	=61	=61
1EE-^< 1D-	1G-^> 1B- 1d- [>1g-	.	0r	.	.	0r	.	.	0r	.	.	.	0r	.	.	.	.
1AA-^< 1E-	1A- 1c 1g-]	.	.	.	.	.	.	.	.	.	.	.	.	.	.	.	.
=62	=62	=62	=62	=62	=62	=62	=62	=62	=62	=62	=62	=62	=62	=62	=62	=62	=62
0DD- 0AA- 0D-	0F; 0A- 0d- 0f	.	0r;>	.	.	0r;>	.	.	0r;>	.	.	.	0r;>	.	.	.	.
==	==	==	==	==	==	==	==	==	==	==	==	==	==	==	==	==	==
*-	*-	*-	*-	*-	*-	*-	*-	*-	*-	*-	*-	*-	*-	*-	*-	*-	*-
!!!system-decoration: [(g1)][([(g2)])]
!!!RDF**kern: > = above
!!!RDF**kern: < = below
!!!RDF**kern: @ = marked note, color=blue
!!!RDF**kern: j = marked note, color=red
!!!RDF**kern: N = linked
!!!RDF**dynam: < = "cres.", fontstyle="normal"
!!!ENC: Andrzej Gręziak
!!!END: 2021-08-18
!!!EED: Jędrzej Mróz
!!!ESR: 2021-10-04
!!!YEC: Copyright 2022 Narodowy Instytut Fryderyka Chopina (https://polishscores.org)
!!!YEM: License CC-BY-4.0 (https://creativecommons.org/licenses/by/4.0)
